src/assets/images/social/facebook.svg

<svg width="10px" height="20px" viewBox="0 0 10 20" version="1.1" xmlns="http://www.w3.org/2000/svg" xmlns:xlink="http://www.w3.org/1999/xlink">
    <g id="Desktop" stroke="none" stroke-width="1px" fill="#ffffff" fill-rule="evenodd" fill-opacity="0.699999988" opacity="0.300000012">
        <g id="Desktop---Footer-v7-light" transform="translate(-810.000000, -4452.000000)" fill="#ffffff" stroke="none" stroke-width="1px">
            <g id="footer" transform="translate(0.000000, 4134.000000)" stroke="none" fill="#ffffff" stroke-width="1px">
                <g id="social" transform="translate(810.000000, 317.000000)" stroke="none" fill="#ffffff" stroke-width="1px">
                    <g id="facebook_filled" transform="translate(0.000000, 1.000000)" stroke="none" fill="#ffffff" stroke-width="1px">
                        <path d="M9.82123077,6.22066667 L6.53815385,6.22066667 L6.53815385,4.63316667 C6.53815385,3.8865 6.99507692,3.71233333 7.31661538,3.71233333 L9.61507692,3.71233333 L9.61507692,0.427333333 L6.28507692,0.4165 C3.26507692,0.4165 2.692,2.86566667 2.692,4.434 L2.692,6.22066667 L0.384307692,6.22066667 L0.384307692,9.554 L2.692,9.554 L2.692,19.554 L6.53815385,19.554 L6.53815385,9.554 L9.50046154,9.554 L9.82123077,6.22066667 Z" id="Fill-256" stroke="none" fill="#ffffff" stroke-width="1px"></path>
                    </g>
                </g>
            </g>
        </g>
    </g>
</svg>

<svg width="10" height="20" xmlns="http://www.w3.org/2000/svg"><path d="M9.821 6.22H6.538V4.634c0-.747.457-.92.779-.92h2.298V.426l-3.33-.01c-3.02 0-3.593 2.449-3.593 4.017v1.787H.384v3.333h2.308v10h3.846v-10H9.5l.321-3.333z"/></svg>
